images/metamorph.svg

<svg height="250" viewBox="0 0 250 250" width="250" xmlns="http://www.w3.org/2000/svg"><path d="m124.632812 239.304688c30.34375-9.644532 62.316407-35.746094 85.398438-72.988282 22.96875-37.132812 30.847656-84.960937 25.332031-121.871094-23.925781-20.28125-63.949219-33.804687-108.984375-33.804687-45.933594 0-86.355468 13.855469-110.109375 34.859375 0 0-9.402343 71.214844 25.78125 121.589844 24.320313 34.859375 53.027344 61.90625 82.582031 72.214844zm0 0" fill="#080c0a"/><path d="m22.628906 49.710938s24.488282-17.789063 46.894532-24.105469c22.402343-6.320313 52.746093-8.035157 52.746093-8.035157v214.917969c-3.488281-1.277343-6.925781-2.660156-10.246093-4.269531-4.164063-2.105469-9.851563-6.316406-9.851563-6.316406l.113281-184.328125s-3.882812.5-7.9375 1.21875c-2.757812.5-5.460937 1.277343-8.105468 2.21875l-.113282 168.53125-11.484375-10.808594c-3.488281-3.269531-6.8125-6.703125-9.90625-10.304687v-139.882813s-7.148437 3.4375-10.921875 5.433594c-3.769531 2.050781-11.035156 7.980469-11.035156 7.980469s-.730469 23.828124 1.015625 33.859374 5.964844 19.5625 5.964844 19.5625v52.207032s-18.179688-25.492188-23.699219-55.640625c-5.515625-30.148438-3.433594-62.238281-3.433594-62.238281zm0 0" fill="#fff"/><path d="m230.070312 49.710938s-24.484374-17.789063-46.890624-24.105469c-22.40625-6.320313-52.746094-8.035157-52.746094-8.035157v214.917969c3.375-1.277343 6.640625-2.71875 9.792968-4.378906 3.546876-1.886719 7.039063-3.933594 10.300782-6.261719l-.054688-184.328125s3.882813.5 7.882813 1.21875c2.757812.5 5.460937 1.273438 8.105469 2.21875l.113281 168.53125s8.441406-7.316406 12.214843-11.140625c3.769532-3.824218 9.230469-9.917968 9.230469-9.917968v-139.882813s7.152344 3.4375 10.921875 5.433594c3.773438 1.992187 11.035156 7.980469 11.035156 7.980469s.730469 23.828124-1.015624 33.859374c-1.742188 10.03125-5.910157 19.5625-5.910157 19.5625v52.207032s18.296875-27.597656 23.8125-57.746094 3.207031-60.132812 3.207031-60.132812zm0 0" fill="#6a5fa9"/></svg>

<!-- Generator: Adobe Illustrator 23.0.0, SVG Export Plug-In . SVG Version: 6.00 Build 0)  -->
<svg xmlns="http://www.w3.org/2000/svg" xmlns:xlink="http://www.w3.org/1999/xlink" width="250px" height="250px" viewBox="0 0 250 250" version="1.1">
<g id="surface1">
<path style=" stroke:none;fill-rule:nonzero;fill:rgb(3.137255%,4.705882%,3.921569%);fill-opacity:1;" d="M 124.632812 239.304688 C 154.976562 229.660156 186.949219 203.558594 210.03125 166.316406 C 233 129.183594 240.878906 81.355469 235.363281 44.445312 C 211.4375 24.164062 171.414062 10.640625 126.378906 10.640625 C 80.445312 10.640625 40.023438 24.496094 16.269531 45.5 C 16.269531 45.5 6.867188 116.714844 42.050781 167.089844 C 66.371094 201.949219 95.078125 228.996094 124.632812 239.304688 Z M 124.632812 239.304688 "/>
<path style=" stroke:none;fill-rule:nonzero;fill:rgb(100%,100%,100%);fill-opacity:1;" d="M 22.628906 49.710938 C 22.628906 49.710938 47.117188 31.921875 69.523438 25.605469 C 91.925781 19.285156 122.269531 17.570312 122.269531 17.570312 L 122.269531 232.488281 C 118.78125 231.210938 115.34375 229.828125 112.023438 228.21875 C 107.859375 226.113281 102.171875 221.902344 102.171875 221.902344 L 102.285156 37.574219 C 102.285156 37.574219 98.402344 38.074219 94.347656 38.792969 C 91.589844 39.292969 88.886719 40.070312 86.242188 41.011719 L 86.128906 209.542969 L 74.644531 198.734375 C 71.15625 195.464844 67.832031 192.03125 64.738281 188.429688 L 64.738281 48.546875 C 64.738281 48.546875 57.589844 51.984375 53.816406 53.980469 C 50.046875 56.03125 42.78125 61.960938 42.78125 61.960938 C 42.78125 61.960938 42.050781 85.789062 43.796875 95.820312 C 45.542969 105.851562 49.761719 115.382812 49.761719 115.382812 L 49.761719 167.589844 C 49.761719 167.589844 31.582031 142.097656 26.0625 111.949219 C 20.546875 81.800781 22.628906 49.710938 22.628906 49.710938 Z M 22.628906 49.710938 "/>
<path style=" stroke:none;fill-rule:nonzero;fill:rgb(41.568628%,37.254903%,66.274512%);fill-opacity:1;" d="M 230.070312 49.710938 C 230.070312 49.710938 205.585938 31.921875 183.179688 25.605469 C 160.773438 19.285156 130.433594 17.570312 130.433594 17.570312 L 130.433594 232.488281 C 133.808594 231.210938 137.074219 229.769531 140.226562 228.109375 C 143.773438 226.222656 147.265625 224.175781 150.527344 221.847656 L 150.472656 37.519531 C 150.472656 37.519531 154.355469 38.019531 158.355469 38.738281 C 161.113281 39.238281 163.816406 40.011719 166.460938 40.957031 L 166.574219 209.488281 C 166.574219 209.488281 175.015625 202.171875 178.789062 198.347656 C 182.558594 194.523438 188.019531 188.429688 188.019531 188.429688 L 188.019531 48.546875 C 188.019531 48.546875 195.171875 51.984375 198.941406 53.980469 C 202.714844 55.972656 209.976562 61.960938 209.976562 61.960938 C 209.976562 61.960938 210.707031 85.789062 208.960938 95.820312 C 207.21875 105.851562 203.050781 115.382812 203.050781 115.382812 L 203.050781 167.589844 C 203.050781 167.589844 221.347656 139.992188 226.863281 109.84375 C 232.378906 79.695312 230.070312 49.710938 230.070312 49.710938 Z M 230.070312 49.710938 "/>
</g>
</svg>
